X: 30579
T: One Choppin Mair
R: reel
M: 4/4
K: Dmajor
F|A,D/E/FD ADFD|GBFA BEEF|A,D/E/FD ADFD|GEge fdd:|
f|d>edA dfaf|gefd Beef|d>edA dfaf|gebg fddf|
d>edA dfaf|gefd ceef|dAFD GBA=c|Bbag fdd||

